img/dcom-logo.svg

<?xml version="1.0" encoding="UTF-8"?>
<svg width="164px" height="38px" viewBox="0 0 164 38" version="1.1" xmlns="http://www.w3.org/2000/svg" xmlns:xlink="http://www.w3.org/1999/xlink">
    <!-- Generator: Sketch 39.1 (31720) - http://www.bohemiancoding.com/sketch -->
    <title>Group 4</title>
    <desc>Created with Sketch.</desc>
    <defs></defs>
    <g id="Page-1" stroke="none" stroke-width="1" fill="none" fill-rule="evenodd" opacity="0.84322528">
        <g id="02_Dcom" transform="translate(-625.000000, -10143.000000)" fill="#3C77BF">
            <g id="Group-18" transform="translate(623.000000, 10143.000000)">
                <g id="Group-4" transform="translate(2.000000, 0.000000)">
                    <path d="M102.667232,25.0673362 C101.779795,25.1098765 101.265668,25.3173538 101.083414,26.2901834 C101.070579,26.3554865 101.040509,26.526394 101.040509,26.6864799 C101.040509,27.1708423 101.242932,27.7484948 102.205911,27.7484948 C102.850587,27.7484948 103.44759,27.58617 103.912211,27.3033143 C104.011589,27.2432354 104.08053,27.1391236 104.101799,27.0174733 L104.364363,25.5061731 C104.385632,25.3848959 104.352629,25.2610066 104.274886,25.166597 C104.197144,25.0721873 104.083097,25.0180791 103.962083,25.0180791 L103.959516,25.0180791 L102.667232,25.0673362 L102.667232,25.0673362 Z M105.367314,29.7060951 C104.824217,29.7060951 104.119401,29.6792275 103.670182,29.6068344 C103.705386,29.3948792 103.775428,28.9560424 103.835202,28.5134739 L103.855737,28.3608513 L103.828234,28.3608513 L103.789363,28.4220496 C103.216563,29.3180081 102.571154,29.6359409 101.643746,29.6359409 C101.543267,29.6359409 101.436921,29.6322093 101.322508,29.6251192 C99.4475225,29.5075737 98.5743872,28.6940837 98.5743872,27.063372 C98.5743872,26.8301467 98.5938228,26.5872192 98.6334274,26.3204094 C99.0375413,24.1027162 100.59679,23.5974568 102.981135,23.5011814 L104.439539,23.4474463 C104.630594,23.4407294 104.793413,23.2970626 104.827151,23.1056312 L105.05341,21.8260637 C105.099983,21.5607465 104.949998,21.296922 104.70467,21.2125877 C104.187976,21.034217 103.517631,20.9237615 102.955099,20.9237615 C102.265685,20.9237615 101.313707,21.0513824 100.639695,21.2346042 C100.634928,21.2349774 100.630161,21.2349774 100.626127,21.2349774 C100.554252,21.2349774 100.524548,21.2010198 100.520514,21.148031 C100.502912,20.9245078 100.493011,20.7528539 100.493011,20.4860442 C100.493011,20.088255 100.501079,19.6247896 100.561586,19.2034913 C100.569287,19.1486367 100.611092,19.102738 100.665365,19.088931 C101.540334,18.8650347 102.524949,18.7422649 103.438789,18.7422649 C104.913694,18.7422649 106.41977,19.09117 107.369914,19.653523 C107.58884,19.7830097 107.710587,20.0531779 107.672816,20.3267046 C107.663649,20.3830518 106.678667,26.3338432 106.588823,26.9473191 C106.585889,26.9712014 106.304257,29.0276892 106.260985,29.6792275 C106.023357,29.6963929 105.70542,29.7060951 105.367314,29.7060951 L105.367314,29.7060951 Z" id="Shape"></path>
                    <path d="M40.166733,35.7665956 C33.00453,35.7665956 27.1778829,29.8389402 27.1778829,22.5537268 C27.1778829,15.2688865 33.00453,9.34197743 40.166733,9.34197743 C43.4476828,9.34197743 46.4469998,10.5879605 48.7356337,12.6366119 L51.7173486,12.6366119 C48.9406243,9.29645184 44.7942401,7.1694367 40.166733,7.1694367 C37.6602737,7.1694367 35.2964643,7.79671958 33.2131877,8.89866269 L27.8621628,0.648829213 C27.5376249,0.147674592 26.8753475,0.00960518757 26.3832234,0.340598597 C25.8910993,0.670845686 25.7554167,1.3451468 26.0799546,1.84630142 L31.3917416,10.0353097 C30.6264189,10.5920653 29.9142691,11.2193482 29.2637264,11.9085757 L15.9837089,0.685772108 C15.5300893,0.3017899 14.8571774,0.365600354 14.4802,0.826826796 C14.1035894,1.2884264 14.16593,1.97354917 14.6195496,2.35715822 L27.8959,13.5762302 C27.4235782,14.242695 27.002229,14.9487147 26.6380865,15.6883189 L1.77041578,2.40305697 C1.24858818,2.12355971 0.603179473,2.32842486 0.329247484,2.85943232 C0.0549487845,3.39155927 0.255905585,4.04794868 0.7780999,4.32707277 L25.8170239,17.7041322 C25.5119216,18.6359141 25.2926294,19.6065047 25.1679481,20.6069482 L3.88669625,15.2935151 C3.31389603,15.1505946 2.73596187,15.5073361 2.59551214,16.0902128 C2.4550624,16.6730896 2.80526997,17.2615638 3.37807019,17.403738 L25.0491343,22.814566 C25.0663696,23.8586692 25.1855502,24.8777707 25.3986084,25.8621682 L10.5626425,26.8667164 C9.97444051,26.9062714 9.52925519,27.423472 9.5681264,28.0220215 C9.60773102,28.6209442 10.1163571,29.0743343 10.7045591,29.0344061 L26.0234814,27.9973929 C28.1896343,33.8015321 33.7108124,37.9395095 40.166733,37.9395095 C44.6057514,37.9395095 48.6047184,35.9834019 51.3741085,32.8749745 L48.2636786,32.8749745 C46.0414191,34.6818179 43.2269237,35.7665956 40.166733,35.7665956" id="Shape"></path>
                    <path d="M42.1652997,17.2791024 C41.728182,17.2791024 41.0277669,17.2970141 40.4945713,17.3473907 L40.3944596,17.3567198 L38.7380328,26.9689624 L38.8788493,26.9838888 C39.2924976,27.0275486 40.2422752,27.0510577 40.76887,27.0510577 C43.4744526,27.0510577 45.0901746,24.5941687 45.0901746,20.4778346 C45.0901746,18.4153762 44.0512867,17.2791024 42.1652997,17.2791024 M40.2888473,29.6904223 C38.7677363,29.6904223 36.6232192,29.5915348 35.3584382,29.4023424 L37.8494958,14.9367736 C39.1362794,14.7658661 41.4689184,14.6397378 42.7542352,14.6397378 C46.2988491,14.6397378 48.2512105,16.7682456 48.2512105,20.6330694 C48.2512105,26.0506143 45.0513034,29.6904223 40.2888473,29.6904223" id="Shape"></path>
                    <path d="M52.5556465,17.5459122 C51.6957127,17.5459122 51.3909771,16.9074345 51.3909771,16.3603811 C51.3909771,15.339787 52.1196289,14.5990633 53.122946,14.5990633 C53.9671113,14.5990633 54.2678131,15.2110466 54.2678131,15.783848 C54.2678131,16.8540725 53.5960013,17.5459122 52.5556465,17.5459122 L52.5556465,17.5459122 Z M49.2889983,29.5045884 L51.1064106,19.0109405 L53.573632,19.0109405 L51.7565865,29.5045884 L49.2889983,29.5045884 L49.2889983,29.5045884 Z" id="Shape"></path>
                    <path d="M59.0174344,29.7116925 C56.3584239,29.7116925 54.8336458,28.1899437 54.8336458,25.5363991 C54.8336458,25.0800237 54.875084,24.5736448 54.9535598,24.0728634 C55.5142586,20.5774685 57.2773979,18.8049559 60.1927383,18.8049559 C61.1051115,18.8049559 62.1810372,18.9751171 62.9170231,19.2322247 C62.7754733,19.8979431 62.5455464,20.792409 62.2136743,21.5469396 C61.6661771,21.3230433 60.9675955,21.1954224 60.2737811,21.1954224 C58.765505,21.1954224 58.0060496,22.0462284 57.6518083,24.1321959 C57.5685652,24.6408137 57.5278604,25.0594999 57.5278604,25.4128829 C57.5278604,26.7674557 58.1233967,27.3204797 59.584734,27.3204797 C60.2019061,27.3204797 61.0218685,27.123824 61.6438078,26.8335051 C61.7673889,27.7104324 61.8300962,28.4690678 61.8352301,29.1444884 C61.200456,29.4363 59.8454644,29.7116925 59.0174344,29.7116925" id="Shape"></path>
                    <path d="M67.3032353,29.7116925 C65.3468402,29.7116925 64.3552578,28.806405 64.3552578,27.0208317 C64.3552578,26.6663292 64.4058637,26.3118267 64.4550027,26.0118056 L65.2922005,21.1756449 L63.9911152,21.1756449 L64.3691927,19.0109405 L65.6710114,19.0109405 L66.0608236,16.7574239 C66.8371476,16.5495735 67.7872919,16.3939655 68.6028538,16.3402304 L68.1385996,19.0109405 L70.8808531,19.0109405 C70.7972434,19.6165801 70.6446922,20.4330554 70.3725938,21.1756449 L67.7590552,21.1756449 L66.9097561,26.1315901 C66.8873868,26.2677937 66.8873868,26.3778761 66.8873868,26.4849732 C66.8873868,27.309658 67.5060257,27.4238451 68.1741704,27.4238451 C68.6406249,27.4238451 69.2442287,27.2928658 69.635141,27.1514379 C69.6501761,27.388768 69.6633776,27.6525925 69.6633776,27.927985 C69.6633776,28.4362297 69.6234063,28.9530571 69.589669,29.3206202 C68.976164,29.5762352 67.8844699,29.7116925 67.3032353,29.7116925" id="Shape"></path>
                    <path d="M74.5347465,17.5459122 C73.6748128,17.5459122 73.3700772,16.9074345 73.3700772,16.3603811 C73.3700772,15.339787 74.0987289,14.5990633 75.1020461,14.5990633 C75.9462113,14.5990633 76.2465464,15.2110466 76.2465464,15.783848 C76.2465464,16.8540725 75.5747346,17.5459122 74.5347465,17.5459122 L74.5347465,17.5459122 Z M71.2677317,29.5045884 L73.0855106,19.0109405 L75.5523653,19.0109405 L73.7356865,29.5045884 L71.2677317,29.5045884 L71.2677317,29.5045884 Z" id="Shape"></path>
                    <path d="M82.0904289,20.8860723 C80.747172,20.8860723 80.0115528,21.8883815 79.6301749,24.2366809 C79.5491321,24.7520156 79.5062271,25.2300342 79.5062271,25.6188675 C79.5062271,26.9529165 80.0892952,27.6294566 81.2392961,27.6294566 C82.6082227,27.6294566 83.2983699,26.6905846 83.6999168,24.281087 C83.7783926,23.8045609 83.8231312,23.300421 83.8231312,22.8970345 C83.8231312,21.5626123 83.2400631,20.8860723 82.0904289,20.8860723 M81.0574082,29.7113193 C78.3595265,29.7113193 76.8123792,28.197407 76.8123792,25.5569229 C76.8123792,25.0195717 76.8875546,24.4363218 76.9528289,23.9881559 C77.4724562,20.64613 79.362477,18.8049559 82.2730502,18.8049559 C84.9705652,18.8049559 86.5173458,20.3184951 86.5173458,22.958606 C86.5173458,23.3855016 86.4663732,23.9568104 86.3768961,24.5255071 C85.8572687,27.869772 83.9683482,29.7113193 81.0574082,29.7113193" id="Shape"></path>
                    <path d="M93.4111175,29.5045884 L94.6403278,22.3634149 C94.6619636,22.2063143 94.6623303,22.1189947 94.6623303,22.0107782 C94.6623303,21.2961757 94.188175,20.9483901 93.2130944,20.9483901 C92.5834542,20.9483901 91.9699493,21.1375825 91.2827357,21.5435812 L91.2299295,21.5749266 L89.8602695,29.5045884 L87.3934148,29.5045884 L89.1928583,19.1012453 C89.9167428,19.0142989 90.8635867,18.956459 91.6784152,18.9497422 L91.4961606,20.0214593 L91.8511354,20.0214593 L91.8903733,19.9804116 C92.9145929,18.8956339 93.8262327,18.8049559 94.6718648,18.8049559 C95.6366774,18.8049559 97.2553331,19.1139328 97.2553331,21.185347 C97.2553331,21.3961827 97.2296635,21.6588878 97.1761239,21.9887617 L95.878339,29.5045884 L93.4111175,29.5045884 L93.4111175,29.5045884 Z" id="Shape"></path>
                    <path d="M109.009106,29.5045884 L110.808916,19.1012453 C111.532434,19.0142989 112.479278,18.956459 113.294106,18.9497422 L113.050611,20.3304362 L113.113685,20.3304362 L113.15329,20.2796864 C114.176776,18.972505 115.289372,18.8049559 115.883075,18.8049559 C116.079631,18.8049559 116.321293,18.8321966 116.503548,18.8728711 C116.360531,19.7524105 116.114836,20.7043431 115.820368,21.5215647 C115.540935,21.4585005 115.203196,21.4219308 114.890026,21.4219308 C114.18411,21.4219308 113.410353,21.6211985 112.819951,21.9555504 L112.764578,21.9865227 L111.476327,29.5045884 L109.009106,29.5045884 L109.009106,29.5045884 Z" id="Shape"></path>
                    <path d="M116.509782,33.9586327 C116.144539,33.9586327 115.257835,33.9254214 114.654232,33.6291319 C114.846021,32.7365319 115.083648,31.9663285 115.361981,31.3368067 C115.778196,31.4819661 116.451475,31.5476424 116.975503,31.5476424 C117.737525,31.5476424 118.103868,31.3069538 118.608093,30.4733132 L119.124054,29.5971322 L119.108652,29.5407849 C118.450042,27.177186 117.63778,23.0384623 117.49623,19.0986332 C118.212047,19.0131795 119.128087,18.9557127 119.855639,18.9497422 L120.511316,25.283023 C120.535885,25.478186 120.591992,25.9853112 120.591992,26.5256477 L120.591992,26.6599855 L120.963468,26.6599855 L120.992072,26.5652027 C121.105018,26.1871911 121.272971,25.7714902 121.490797,25.3289218 L124.454909,18.949369 C125.157892,18.9523543 126.154608,18.9900435 126.885827,19.0866921 L121.781597,29.3728627 C119.876908,33.2082068 118.406403,33.9586327 116.509782,33.9586327" id="Shape"></path>
                    <path d="M126.54442,29.7116925 C125.777264,29.7116925 125.319244,29.2840505 125.319244,28.5672091 C125.319244,27.311897 126.230517,26.8670896 127.010508,26.8670896 C127.717891,26.8670896 128.175177,27.3242113 128.175177,28.0313505 C128.175177,29.2717362 127.296908,29.7116925 126.54442,29.7116925" id="Shape"></path>
                    <path d="M134.194347,29.7116925 C131.535703,29.7116925 130.011658,28.1899437 130.011658,25.5363991 C130.011658,25.0766653 130.052363,24.5710327 130.130472,24.0728634 C130.691171,20.5774685 132.45431,18.8049559 135.370017,18.8049559 C136.281657,18.8049559 137.357583,18.9751171 138.093936,19.2322247 C137.951286,19.9009284 137.720625,20.7968869 137.39022,21.5469396 C136.84309,21.3230433 136.144508,21.1954224 135.450694,21.1954224 C133.943151,21.1954224 133.183329,22.0462284 132.827987,24.1321959 C132.745478,24.6385748 132.704773,25.0572609 132.704773,25.4128829 C132.704773,26.7674557 133.300676,27.3204797 134.762013,27.3204797 C135.399721,27.3204797 136.103803,27.1618864 136.682104,26.8924645 C136.779649,27.655951 136.796517,28.499667 136.797618,29.2448686 C136.16101,29.5377997 134.99414,29.7116925 134.194347,29.7116925" id="Shape"></path>
                    <path d="M143.69579,20.8860723 C142.352533,20.8860723 141.616914,21.8883815 141.235536,24.2366809 C141.154493,24.7520156 141.111588,25.2300342 141.111588,25.6188675 C141.111588,26.9529165 141.694656,27.6294566 142.844657,27.6294566 C144.213584,27.6294566 144.903731,26.6905846 145.305278,24.281087 C145.383754,23.8045609 145.428492,23.300421 145.428492,22.8970345 C145.428492,21.5626123 144.845424,20.8860723 143.69579,20.8860723 M142.662769,29.7113193 C139.964887,29.7113193 138.41774,28.197407 138.41774,25.5569229 C138.41774,25.0195717 138.492916,24.4363218 138.55819,23.9881559 C139.077817,20.64613 140.967838,18.8049559 143.878411,18.8049559 C146.575926,18.8049559 148.122707,20.3184951 148.122707,22.958606 C148.122707,23.3855016 148.071734,23.9568104 147.982257,24.5255071 C147.46263,27.869772 145.573709,29.7113193 142.662769,29.7113193" id="Shape"></path>
                    <path d="M160.122175,29.5045884 L161.350652,22.3634149 C161.373387,22.2279576 161.373387,22.1365333 161.373387,22.0309288 C161.373387,21.5368643 161.150061,20.9483901 160.08587,20.9483901 C159.540573,20.9483901 158.890031,21.1793765 158.387639,21.5514175 L158.344367,21.582763 L156.976541,29.5045884 L154.509319,29.5045884 L155.738529,22.3634149 C155.767133,22.1898952 155.781068,22.061528 155.781068,21.9693573 C155.781068,21.503653 155.568376,20.9483901 154.554791,20.9483901 C153.999593,20.9483901 153.453196,21.1323582 152.784318,21.5450738 L152.733345,21.5764193 L151.363685,29.5045884 L148.89683,29.5045884 L150.696641,19.1012453 C151.420158,19.0142989 152.367369,18.956459 153.182198,18.9497422 L152.999576,20.0214593 L153.353818,20.0214593 L153.392322,19.9811579 C154.340633,18.9975067 155.11659,18.8049559 156.135309,18.8049559 C157.275042,18.8049559 157.921918,19.2423 158.11334,20.1419901 L158.163579,20.3778276 L158.334099,20.2102785 C159.350985,19.212074 160.240255,18.8049559 161.403091,18.8049559 C162.360569,18.8049559 163.966024,19.1139328 163.966024,21.185347 C163.966024,21.4476789 163.925686,21.7715823 163.887548,21.9868959 L162.589396,29.5045884 L160.122175,29.5045884 L160.122175,29.5045884 Z" id="Shape"></path>
                </g>
            </g>
        </g>
    </g>
</svg>

<svg width="164" height="38" viewBox="0 0 164 38" xmlns="http://www.w3.org/2000/svg"><title>Group 4</title><g fill="#3C77BF" fill-rule="evenodd" opacity=".843"><path d="M102.667 25.067c-.887.043-1.401.25-1.584 1.223a2.24 2.24 0 0 0-.042.396c0 .485.202 1.062 1.165 1.062.645 0 1.242-.162 1.706-.445.1-.06.169-.164.19-.286l.262-1.51a.42.42 0 0 0-.09-.34.404.404 0 0 0-.312-.149h-.002l-1.293.05zm2.7 4.64c-.543 0-1.248-.028-1.697-.1.035-.212.105-.651.165-1.094l.02-.152h-.027l-.039.061c-.572.896-1.218 1.214-2.145 1.214a5.2 5.2 0 0 1-.321-.01c-1.875-.118-2.749-.932-2.749-2.563 0-.233.02-.476.06-.743.404-2.217 1.963-2.723 4.347-2.819l1.459-.054a.412.412 0 0 0 .387-.341l.226-1.28a.548.548 0 0 0-.348-.613 5.747 5.747 0 0 0-1.75-.29 9.94 9.94 0 0 0-2.315.312h-.014c-.072 0-.101-.034-.105-.087a7.535 7.535 0 0 1-.028-.662c0-.398.008-.861.069-1.283a.14.14 0 0 1 .103-.114c.875-.224 1.86-.347 2.774-.347 1.475 0 2.98.35 3.93.912.22.129.342.4.304.673-.01.056-.994 6.007-1.084 6.62-.003.024-.285 2.08-.328 2.732-.238.017-.556.027-.894.027zm-65.2 6.06c-7.162 0-12.99-5.928-12.99-13.213 0-7.285 5.828-13.212 12.99-13.212 3.28 0 6.28 1.246 8.569 3.295h2.981c-2.776-3.34-6.923-5.468-11.55-5.468-2.507 0-4.87.628-6.954 1.73l-5.35-8.25a1.055 1.055 0 0 0-1.48-.308 1.099 1.099 0 0 0-.303 1.505l5.312 8.19a15.318 15.318 0 0 0-2.128 1.873L15.984.686a1.055 1.055 0 0 0-1.504.14 1.1 1.1 0 0 0 .14 1.531l13.276 11.22a15.475 15.475 0 0 0-1.258 2.111L1.77 2.403a1.058 1.058 0 0 0-1.44.456 1.096 1.096 0 0 0 .448 1.468l25.039 13.377a15.471 15.471 0 0 0-.65 2.903l-21.28-5.313a1.067 1.067 0 0 0-1.291.796c-.14.583.21 1.172.782 1.314l21.671 5.41c.017 1.045.137 2.064.35 3.048l-14.836 1.005a1.08 1.08 0 0 0-.995 1.155c.04.599.548 1.052 1.137 1.012l15.318-1.037c2.167 5.805 7.688 9.943 14.144 9.943 4.439 0 8.438-1.957 11.207-5.065h-3.11a12.792 12.792 0 0 1-8.097 2.892"/><path d="M42.165 17.28c-.437 0-1.137.017-1.67.067l-.1.01-1.657 9.612.14.015c.414.044 1.364.067 1.89.067 2.706 0 4.322-2.457 4.322-6.573 0-2.063-1.039-3.199-2.925-3.199M40.29 29.69c-1.521 0-3.666-.098-4.93-.288l2.49-14.465c1.287-.171 3.62-.297 4.905-.297 3.545 0 5.497 2.128 5.497 5.993 0 5.418-3.2 9.057-7.962 9.057m12.266-12.144c-.86 0-1.165-.639-1.165-1.186 0-1.02.729-1.76 1.732-1.76.844 0 1.145.611 1.145 1.184 0 1.07-.672 1.762-1.712 1.762zm-3.267 11.959l1.817-10.494h2.468l-1.817 10.494h-2.468zm9.728.207c-2.659 0-4.183-1.522-4.183-4.176 0-.456.041-.962.12-1.463.56-3.496 2.323-5.268 5.239-5.268.912 0 1.988.17 2.724.427-.142.666-.371 1.56-.703 2.315-.548-.224-1.246-.352-1.94-.352-1.508 0-2.268.851-2.622 2.937a8.067 8.067 0 0 0-.124 1.28c0 1.355.595 1.908 2.057 1.908.617 0 1.437-.196 2.059-.486.123.876.186 1.635.191 2.31-.635.292-1.99.568-2.818.568m8.286 0c-1.956 0-2.948-.906-2.948-2.691 0-.355.05-.71.1-1.01l.837-4.835h-1.3l.377-2.165h1.302l.39-2.254a13.99 13.99 0 0 1 2.542-.417l-.464 2.67h2.742c-.084.607-.236 1.423-.508 2.166h-2.614l-.85 4.956c-.022.136-.022.246-.022.353 0 .825.619.939 1.287.939.467 0 1.07-.131 1.461-.273.015.238.028.502.028.777 0 .508-.04 1.025-.073 1.393-.614.255-1.706.39-2.287.39m7.232-12.165c-.86 0-1.165-.639-1.165-1.186 0-1.02.729-1.76 1.732-1.76.844 0 1.145.611 1.145 1.184 0 1.07-.672 1.762-1.712 1.762zm-3.267 11.959l1.818-10.494h2.466l-1.816 10.494h-2.468zm10.822-8.619c-1.343 0-2.078 1.002-2.46 3.35a9.212 9.212 0 0 0-.124 1.383c0 1.334.583 2.01 1.733 2.01 1.37 0 2.06-.938 2.46-3.348.08-.476.124-.98.124-1.384 0-1.334-.583-2.01-1.733-2.01m-1.033 8.824c-2.697 0-4.245-1.514-4.245-4.154 0-.537.076-1.12.14-1.569.52-3.342 2.41-5.183 5.321-5.183 2.698 0 4.244 1.513 4.244 4.154 0 .427-.05.998-.14 1.567-.52 3.344-2.409 5.185-5.32 5.185m12.354-.206l1.23-7.142c.021-.157.021-.244.021-.352 0-.715-.474-1.063-1.449-1.063-.63 0-1.243.19-1.93.596l-.053.03-1.37 7.93h-2.467l1.8-10.403a23.92 23.92 0 0 1 2.485-.151l-.182 1.071h.355l.04-.04c1.024-1.085 1.935-1.176 2.78-1.176.966 0 2.584.309 2.584 2.38 0 .211-.025.474-.079.804l-1.298 7.516h-2.467zm15.599 0l1.799-10.404a24.13 24.13 0 0 1 2.485-.151l-.243 1.38h.063l.04-.05c1.023-1.307 2.135-1.475 2.73-1.475a3.1 3.1 0 0 1 .62.068 15.46 15.46 0 0 1-.684 2.649c-.28-.063-.617-.1-.93-.1-.706 0-1.48.2-2.07.534l-.055.03-1.289 7.519h-2.467zm7.5 4.454c-.365 0-1.252-.034-1.856-.33.192-.892.43-1.663.708-2.292.416.145 1.09.21 1.614.21.762 0 1.128-.24 1.632-1.074l.516-.876-.015-.056c-.659-2.364-1.471-6.503-1.613-10.442a23.284 23.284 0 0 1 2.36-.15l.655 6.334c.025.195.081.702.081 1.243v.134h.371l.03-.095a8.09 8.09 0 0 1 .498-1.236l2.964-6.38c.703.003 1.7.041 2.43.138l-5.103 10.286c-1.905 3.835-3.376 4.586-5.272 4.586m10.034-4.247c-.767 0-1.225-.428-1.225-1.145 0-1.255.912-1.7 1.692-1.7.707 0 1.164.457 1.164 1.164 0 1.24-.878 1.68-1.63 1.68m7.649.001c-2.658 0-4.182-1.522-4.182-4.176 0-.46.04-.965.118-1.463.561-3.496 2.324-5.268 5.24-5.268.912 0 1.988.17 2.724.427-.143.669-.373 1.565-.704 2.315-.547-.224-1.245-.352-1.94-.352-1.507 0-2.267.851-2.622 2.937a8.095 8.095 0 0 0-.123 1.28c0 1.355.596 1.908 2.057 1.908.638 0 1.342-.158 1.92-.428.098.764.115 1.608.116 2.353-.637.293-1.804.467-2.604.467m9.502-8.826c-1.343 0-2.08 1.002-2.46 3.35a9.212 9.212 0 0 0-.124 1.383c0 1.334.583 2.01 1.733 2.01 1.369 0 2.059-.938 2.46-3.348.079-.476.123-.98.123-1.384 0-1.334-.583-2.01-1.732-2.01m-1.033 8.824c-2.698 0-4.245-1.514-4.245-4.154 0-.537.075-1.12.14-1.569.52-3.342 2.41-5.183 5.32-5.183 2.698 0 4.245 1.513 4.245 4.154 0 .427-.051.998-.14 1.567-.52 3.344-2.41 5.185-5.32 5.185m17.459-.206l1.229-7.142c.022-.135.022-.226.022-.332 0-.494-.223-1.083-1.287-1.083-.545 0-1.196.231-1.698.603l-.044.032-1.367 7.922h-2.468l1.23-7.142a2.64 2.64 0 0 0 .042-.394c0-.465-.213-1.02-1.226-1.02-.555 0-1.102.183-1.77.596l-.052.031-1.37 7.929h-2.466l1.8-10.404c.723-.087 1.67-.145 2.485-.151L153 20.02h.354l.038-.04c.949-.983 1.725-1.176 2.743-1.176 1.14 0 1.787.437 1.978 1.337l.05.236.171-.168c1.017-.998 1.906-1.405 3.07-1.405.957 0 2.562.309 2.562 2.38 0 .263-.04.587-.078.802l-1.299 7.518h-2.467z"/></g></svg>
